X:1
T:James Gibb editions
T:No fie nadie - Torre
T:#
%%score [ 1 2 3 ]
L:1/8
Q:1/4=108
M:2/2
K:C
V:1 treble nm="Alto" snm="A"
V:2 treble-8 nm="Tenor" snm="T"
V:3 bass nm="Bass" snm="B"
V:1
"^No fie nadie en amor""^Francisco de la Torre\n(1460-1505)" E4 E4 | C8 | F4 (E4- | %3
w: No fi-|e|na- die|
w: |||
w: |||
 E2 D2) (C2 B,2) | A,8 | G,8 | z8 |[M:2/2] G4 G4 | E4 E4 | C4 C4 | (A,4- G,4 | A,4 C4- | C4 B,4 | %13
w: * * en *|a-|mor,||qu'es mu-|da- ble~~y|bur- la-|dor. *|||
w: ||||||||||
w: ||||||||||
 C16) || E4 E4 | (D6 E2) | (F4 G4) | E4 C4 | (F4 E2 G2- | G2 F2 E4 | D8) | C8 | E4 E4 | (D6 E2) | %24
w: |To- das|da\- *|mas *|que guer-|re\- * *|||an,|por bien|a\- *|
w: |Nun- ca|mi\- *|ran *|ser que-|ri\- * *|||das|ni de|gran *|
w: |A- sí|que~~en *|es\- *|to que|si\- * *|||go|en el|fin *|
 (F4 G4) | E4 C4 | (F4 E2 G2- | G2 F2 E4 | D8 | C8 | E4 E4 | C8 | F4 (E4- | E2 D2) C2 B,2) | A,8 | %35
w: ma\- *|das que|se\- * *|||an.|en un|ho-|ra que|* * no os|ve-|
w: tiem\- *|po se-|vi\- * *|||das|ni tam-|po-|co ser|* * fe\- *|ri-|
w: a\- *|ca- bo~~y|di\- * *|||go:|bien a-|mar|es en\-|* * e\- *|mi-|
 G,8 | z8 | G4 G4 | E4 E4 | C4 C4 | (A,4 G,4 | A,4 C4- | C4 B,4 | C16) |] %44
w: an||to- man|nue- vo|a- ma-|dor. *||||
w: das||de te-|ner da-|do fa-|vor. *||||
w: go||de con-|stan- te|ser- vi-|dor. *||||
V:2
 c4 c4 | A8 | A4 G4- | G4 E4 | ^F8 | G8 | B8 |[M:2/2][K:treble-8] B8 | c4 c4 | A4 A4 | (F4 E4 | %11
w: No fi-|e|na- die|* en|a-|mor,|qu'es|mu-|da- ble~~y|bur- la-|dor. *|
w: |||||||||||
w: |||||||||||
 C8 | D8 | C16) || c4 c4 | B8 | (A4 G4) | G4 (A4- | A2 B2) c4- | (B2 A2 c4- | c4 B4) | c8 | c4 c4 | %23
w: |||To- das|da-|mas *|que guer\-|* * re\-|||an,|por bien|
w: |||Nun- ca|mi-|ran *|ser que\-|* * ri\-|||das|ni de|
w: |||A- sí|que~~en|es\- *|to que|* * si\-|||go|en el|
 B8 | (A4 G4) | G4 (A4- | A2 B2) (c4 | B2 A2 c4- | c4 B4) | c8 | c4 c4 | A8 | A4 G4- | G4 E4 | %34
w: a-|ma\- *|das que|* * se\-|||an.|en un|ho-|ra que|* no~~os|
w: gran|tiem\- *|po se\-|* * vi\-|||das|ni tam-|po-|co ser|* fe-|
w: fin|a\- *|ca- bo~~y|* * di\-|||go:|bien a-|mar|es en\-|* e-|
 ^F8 | G8 | B8 | B8 | c4 c4 | A4 A4 | (F4 E4 | C8 | D8 | C16) |] %44
w: ve-|an|to-|man|nue- vo|a- ma-|dor. *||||
w: ri-|das|de|te-|ner da-|do fa-|vor. *||||
w: mi-|go|de|con-|stan- te|ser- vi-|dor. *||||
V:3
 C,4 C,4 | F,8 | F,4 C,4- | C,4 C,4 | D,8 | G,,8 | G,4 G,4 |[M:2/2] E,4 E,4 | C,4 C,4 | F,8 | %10
w: No fi-|e|na- die|* en|a-|mor,|qu'es mu-|da- ble~~y|bur- la-|dor,|
w: ||||||||||
w: ||||||||||
 (F,,4 C,4) | (A,,8 | G,,8) | G,16 || C,4 C,4 | G,,8 | (D,4 E,4) | C,4 F,4 | (D,4 C,4 | %19
w: bur\- *|la\-||dor.|To das|da-|mas *|que guer-|re\- *|
w: ||||Nun- ca|mi-|ran *|ser que-|ri\- *|
w: ||||A- sí|que~~en|es\- *|to que|si\- *|
 E,2 F,2 C,4 | G,8) | C,8 | C,4 C,4 | G,,8 | (D,4 E,4) | C,4 F,4 | (D,4 C,4 | E,2 F,2 C,4 | G,8 | %29
w: ||an,|por bien|a-|ma\- *|das que|se\- *|||
w: ||das|ni de|gran|tiem\- *|po se-|vi\- *|||
w: ||go|en el|fin|a\- *|ca- bo~~y|di\- *|||
 C,8 | C,4 C,4 | F,8 | F,4 C,4- | C,4 C,4 | D,8 | G,,8 | G,4 G,4 | E,4 E,4 | C,4 C,4 | F,8 | %40
w: an.|en un|ho-|ra que|* no~~os|ve-|an|to- man|nue- vo|a- ma-|dor,|
w: das|ni tam-|po-|co ser|* fe-|ri-|das|de te-|ner da-|do fa-|vor,|
w: go:|bien a-|mar|es en\-|* e-|mi-|go|de con-|stan- te|ser- vi-|dor,|
 F,,4 C,4) | (A,,8 | G,,8) | G,16 |] %44
w: a\- *|ma\-||dor.|
w: da- do|fa\-||vor.|
w: ser\- *|vi\-||dor.|

